X:1
T:Praise the Lamb
T:Praise the Lamb
T:Philip Paul Bliss, 1870
T:Henry D’Arcy Champney, 1902
T:Public Domain Courtesy of the Cyber Hymnal™
C:Philip Paul Bliss, 1870
Z:Public Domain
Z:Courtesy of the Cyber Hymnal™
%%score 1 ( 2 3 )
L:1/8
Q:1/4=85
M:2/4
K:D
V:1 treble 
V:2 bass 
V:3 bass 
V:1
 [FA]>[GB] [FA][DF] | [Fd]>[Ge] [Fd][GB] | [FA]>[GB] [FA][DF] | [CE]4 | [FA]>[GB] [FA][DF] | %5
w: 1.~Bless- èd Lord, our|hal- le- lu- jahs|Now to Thee we|raise;|Ne- ver could we|
w: 2.~Praise the Lamb! Yes,|Thou art worth- y,|Who didst shed Thy|blood,|To re- deem Thy|
w: 3.~Yes! we praise thee,|for Thou lov’st us;|And we bless Thee,|Lord,|For Thy cease- less|
w: 4.~Hal- le- lu- jah,|Thou, Lord Je- sus,|Canst not cease to|love;|Thine we are, and|
w: 5.~Praise the Lord! Yes,|hal- le- lu- jah!|Who could hush the|song?|Join with saints from|
 [Fd]>[Ge] [Fd][FB] | [Ec]>[Fd] [Ec][DB] | [CA]4 ||"^Refrain" [Fd]>[Fd] [Fd]>[Fd] | %9
w: full- y ut- ter|All Thy worth and|praise!||
w: saints, and make us|Kings and priests to|God!||
w: in- ter- cess- ion,|And Thy pre- cious|Word.|Praise the Lamb, for|
w: Thine for- ev- er,|One with Thee a-|bove.||
w: ev- ery na- tion,|Ev- ery tribe and|tongue.||
 [Fd][FA] [DF][FA] | [GB]>[GB] [GB][Gd] | [Ec]4 | [Fd]>[Fd] [Fd][Fd] | [Ge][Gd] [Gc][GB] | %14
w: |||||
w: |||||
w: He is worth- y!|Sweet e- ter- nal|strain.|Hal- le- lu- jah!|Hal- le- lu- jah!|
w: |||||
w: |||||
 [FA][FA] [GB]>[Gc] | [Fd]3 |] %16
w: ||
w: ||
w: Praise the Lord! A-|men.|
w: ||
w: ||
V:2
 [D,D]>[D,D] [D,D][D,A,] | [D,A,]>[D,A,] [D,A,][D,D] | [D,D]>[D,D] [D,D][F,A,] | A,4 | %4
 [D,D]>[D,D] [D,D][D,A,] | [D,A,]>[D,A,] [D,A,][D,D] | [E,A,]>[E,A,] [E,A,][E,^G,] | [A,,A,]4 || %8
 [D,A,]>[D,A,] [D,A,]>[D,A,] | [D,A,][D,D] [D,D][D,D] | [G,D]>[G,D] [G,D][G,B,] | A,4 | %12
 [D,A,]>A, [D,A,][D,A,] | [G,B,][G,B,] [G,C][G,D] | [A,D][A,D] [A,C]>[A,E] | [D,D]3 |] %16
V:3
 x4 | x4 | x4 | x4 | x4 | x4 | x4 | x4 || x4 | x4 | x4 | A,4 | x4 | x4 | x4 | x3 |] %16

